Newaita/actions/scalable/view-fullscreen.svg

<?xml version="1.0" encoding="UTF-8"?>
<svg xmlns="http://www.w3.org/2000/svg" xmlns:xlink="http://www.w3.org/1999/xlink" width="512pt" height="512pt" viewBox="0 0 512 512" version="1.1">
<g id="surface1">
<path style=" stroke:none;fill-rule:nonzero;fill:rgb(25.882354%,25.882354%,25.882354%);fill-opacity:1;" d="M 127.011719 109.84375 C 115.285156 109.84375 105.84375 119.285156 105.84375 131.011719 L 105.84375 385.035156 C 105.84375 396.765625 115.285156 406.207031 127.011719 406.207031 L 381.035156 406.207031 C 392.765625 406.207031 402.203125 396.765625 402.203125 385.035156 L 402.203125 131.011719 C 402.203125 119.285156 392.765625 109.84375 381.035156 109.84375 Z M 137.597656 205.101562 L 370.453125 205.101562 L 370.453125 358.574219 C 370.453125 367.371094 363.371094 374.453125 354.574219 374.453125 L 153.472656 374.453125 C 144.675781 374.453125 137.597656 367.371094 137.597656 358.574219 Z M 137.597656 205.101562 "/>
<path style=" stroke:none;fill-rule:nonzero;fill:rgb(14.901961%,77.64706%,85.490197%);fill-opacity:0.996078;" d="M 63.507812 25.167969 C 40.050781 25.167969 21.167969 44.050781 21.167969 67.507812 L 21.167969 131.011719 C 21.167969 136.875 28.109375 141.597656 36.734375 141.597656 L 37.355469 141.597656 C 45.980469 141.597656 52.921875 136.875 52.921875 131.011719 L 52.921875 78.089844 C 52.921875 66.363281 62.363281 56.921875 74.089844 56.921875 L 127.011719 56.921875 C 132.875 56.921875 137.597656 49.839844 137.597656 41.046875 C 137.597656 32.25 132.875 25.167969 127.011719 25.167969 Z M 381.035156 25.167969 C 375.171875 25.167969 370.453125 32.25 370.453125 41.046875 C 370.453125 49.839844 375.171875 56.921875 381.035156 56.921875 L 433.957031 56.921875 C 445.6875 56.921875 455.125 66.363281 455.125 78.089844 L 455.125 131.011719 C 455.125 136.875 462.207031 141.597656 471.003906 141.597656 C 479.800781 141.597656 486.878906 136.875 486.878906 131.011719 L 486.878906 67.507812 C 486.878906 44.050781 467.996094 25.167969 444.542969 25.167969 Z M 36.734375 374.453125 C 28.109375 374.453125 21.167969 379.171875 21.167969 385.035156 L 21.167969 448.542969 C 21.167969 471.996094 40.050781 490.878906 63.507812 490.878906 L 127.011719 490.878906 C 132.875 490.878906 137.597656 483.800781 137.597656 475.003906 C 137.597656 466.207031 132.875 459.128906 127.011719 459.128906 L 74.089844 459.128906 C 62.363281 459.128906 52.921875 449.6875 52.921875 437.957031 L 52.921875 385.035156 C 52.921875 379.171875 45.980469 374.453125 37.355469 374.453125 Z M 471.003906 374.453125 C 462.207031 374.453125 455.125 379.171875 455.125 385.035156 L 455.125 437.957031 C 455.125 449.6875 445.6875 459.128906 433.957031 459.128906 L 381.035156 459.128906 C 375.171875 459.128906 370.453125 466.207031 370.453125 475.003906 C 370.453125 483.800781 375.171875 490.878906 381.035156 490.878906 L 444.542969 490.878906 C 467.996094 490.878906 486.878906 471.996094 486.878906 448.542969 L 486.878906 385.035156 C 486.878906 379.171875 479.800781 374.453125 471.003906 374.453125 Z M 471.003906 374.453125 "/>
</g>
</svg>

<svg xmlns="http://www.w3.org/2000/svg" width="512pt" height="512pt" viewBox="0 0 512 512"><path d="M127.012 109.844a21.122 21.122 0 0 0-21.168 21.168v254.023a21.123 21.123 0 0 0 21.168 21.172h254.023a21.12 21.12 0 0 0 21.168-21.172V131.012a21.12 21.12 0 0 0-21.168-21.168zm10.586 95.258h232.855v153.472a15.844 15.844 0 0 1-15.879 15.88H153.473a15.84 15.84 0 0 1-15.875-15.88zm0 0" fill="#424242"/><path d="M63.508 25.168c-23.457 0-42.34 18.883-42.34 42.34v63.504c0 5.863 6.941 10.586 15.566 10.586h.621c8.625 0 15.567-4.723 15.567-10.586V78.09A21.122 21.122 0 0 1 74.09 56.922h52.922c5.863 0 10.586-7.082 10.586-15.875 0-8.797-4.723-15.879-10.586-15.879zm317.527 0c-5.863 0-10.582 7.082-10.582 15.879 0 8.793 4.719 15.875 10.582 15.875h52.922a21.12 21.12 0 0 1 21.168 21.168v52.922c0 5.863 7.082 10.586 15.879 10.586s15.875-4.723 15.875-10.586V67.508c0-23.457-18.883-42.34-42.336-42.34zm-344.3 349.285c-8.626 0-15.567 4.719-15.567 10.582v63.508c0 23.453 18.883 42.336 42.34 42.336h63.504c5.863 0 10.586-7.078 10.586-15.875s-4.723-15.875-10.586-15.875H74.09a21.123 21.123 0 0 1-21.168-21.172v-52.922c0-5.863-6.942-10.582-15.567-10.582zm434.269 0c-8.797 0-15.879 4.719-15.879 10.582v52.922a21.12 21.12 0 0 1-21.168 21.172h-52.922c-5.863 0-10.582 7.078-10.582 15.875s4.719 15.875 10.582 15.875h63.508c23.453 0 42.336-18.883 42.336-42.336v-63.508c0-5.863-7.078-10.582-15.875-10.582zm0 0" fill="#26c6da" fill-opacity=".996"/></svg>
